img/svg/next.svg

<svg width="42" height="42" viewBox="0 0 42 42"  xmlns="http://www.w3.org/2000/svg">
<path fill-rule="evenodd" clip-rule="evenodd" d="M24.1313 41.826C26.3371 41.4683 28.1065 40.8965 30.2382 39.8522C43.2528 33.4768 46.0449 16.1738 35.6983 6.014C33.3665 3.72433 30.7192 2.1037 27.6331 1.07698C19.4177 -1.65618 10.3624 0.923505 4.87989 7.55904C1.66109 11.4549 0.00274885 16.0245 5.65005e-06 21.006C-0.00562572 31.0061 6.91765 39.5105 16.7809 41.6188C18.6821 42.0253 22.2771 42.1265 24.1313 41.826ZM17.9655 28.8565C17.6182 28.5424 17.356 28.1659 17.356 27.9814C17.356 27.7627 18.4311 26.5805 20.6646 24.3431L23.9731 21.0289L20.6646 17.7045C18.4778 15.5074 17.356 14.2726 17.356 14.0629C17.356 13.7386 18.4315 12.6434 18.75 12.6434C19.0553 12.6434 26.948 20.6629 26.948 20.9732C26.948 21.2392 18.9429 29.4076 18.6821 29.4076C18.6232 29.4076 18.3006 29.1596 17.9655 28.8565Z" />
</svg>

<svg width="42" height="42" xmlns="http://www.w3.org/2000/svg"><path fill-rule="evenodd" clip-rule="evenodd" d="M24.131 41.826c2.206-.358 3.976-.93 6.107-1.974 13.015-6.375 15.807-23.678 5.46-33.838-2.331-2.29-4.979-3.91-8.065-4.937C19.418-1.656 10.363.924 4.88 7.559 1.66 11.455.003 16.025 0 21.006c-.006 10 6.918 18.505 16.78 20.613 1.902.406 5.497.508 7.351.207zm-6.166-12.97c-.347-.314-.609-.69-.609-.875 0-.218 1.075-1.4 3.309-3.638l3.308-3.314-3.308-3.325c-2.187-2.197-3.309-3.431-3.309-3.641 0-.324 1.075-1.42 1.394-1.42.305 0 8.198 8.02 8.198 8.33 0 .266-8.005 8.435-8.266 8.435-.059 0-.381-.248-.716-.552z"/></svg>
